svg/media/camcorder_off_line.svg

<svg xmlns="http://www.w3.org/2000/svg" width="24" height="24" viewBox="0 0 24 24"><g fill="none" fill-rule="evenodd"><path d="M24,0 L24,24 L0,24 L0,0 L24,0 Z M12.5935,23.2578 L12.5819,23.2595 L12.5109,23.295 L12.4919,23.2987 L12.4767,23.295 L12.4057,23.2595 C12.3958,23.2564 12.387,23.259 12.3821,23.2649 L12.378,23.2758 L12.3609,23.7031 L12.3659,23.7235 L12.3769,23.7357 L12.4805,23.8097 L12.4953,23.8136 L12.5071,23.8097 L12.6107,23.7357 L12.6233,23.7197 L12.6267,23.7031 L12.6096,23.2758 C12.6076,23.2657 12.601,23.2593 12.5935,23.2578 Z M12.8584,23.1453 L12.8445,23.1473 L12.6598,23.2397 L12.6499,23.2499 L12.6472,23.2611 L12.6651,23.6906 L12.6699,23.7034 L12.6784,23.7105 L12.8793,23.8032 C12.8914,23.8069 12.9022,23.803 12.9078,23.7952 L12.9118,23.7812 L12.8777,23.1665 C12.8753,23.1546 12.8674,23.147 12.8584,23.1453 Z M12.143,23.1473 C12.1332,23.1424 12.1222,23.1453 12.1156,23.1526 L12.1099,23.1665 L12.0758,23.7812 C12.0751,23.7927 12.0828,23.8019 12.0926,23.8046 L12.1083,23.8032 L12.3092,23.7105 L12.3186,23.7024 L12.3225,23.6906 L12.3404,23.2611 L12.3372,23.2485 L12.3278,23.2397 L12.143,23.1473 Z"/><path fill="#09244B" d="M1.51482,2.51457 C1.8753,2.15409 2.44253503,2.12636077 2.8348235,2.43138231 L2.92903,2.51457 L4.41446,4 L16,4 C17.0543909,4 17.9181678,4.81587733 17.9945144,5.85073759 L18,6 L18,8.20922 L20.0944,6.91903 C20.8925,6.42736667 21.9110167,6.95714172 21.9945075,7.86305705 L22,7.9833 L22,16.0162 C22,16.9536417 21.0147375,17.5429168 20.199655,17.1388858 L20.0944,17.0805 L18,15.7903 L18,17.5855 L19.4854,19.0709 C19.8759,19.4614 19.8759,20.0946 19.4854,20.4851 C19.1249385,20.8456538 18.5576793,20.8733888 18.1654027,20.5683047 L18.0712,20.4851 L1.51482,3.92879 C1.12429,3.53826 1.12429,2.9051 1.51482,2.51457 Z M2,7.2465 L4,9.2465 L4,18 L12.7535,18 L14.7535,20 L4,20 C2.89543,20 2,19.1046 2,18 L2,7.2465 Z M16,6 L6.41446,6 L16,15.5855 L16,6 Z M20,9.3262 L18,10.5583 L18,13.4413 L20,14.6733 L20,9.3262 Z"/></g></svg>

<svg xmlns="http://www.w3.org/2000/svg" width="24" height="24"><g fill="none" fill-rule="evenodd"><path d="M24 0v24H0V0zM12.594 23.258l-.012.002-.071.035-.02.004-.014-.004-.071-.036c-.01-.003-.019 0-.024.006l-.004.01-.017.428.005.02.01.013.104.074.015.004.012-.004.104-.074.012-.016.004-.017-.017-.427c-.002-.01-.009-.017-.016-.018m.264-.113-.014.002-.184.093-.01.01-.003.011.018.43.005.012.008.008.201.092c.012.004.023 0 .029-.008l.004-.014-.034-.614c-.003-.012-.01-.02-.02-.022m-.715.002a.023.023 0 0 0-.027.006l-.006.014-.034.614c0 .012.007.02.017.024l.015-.002.201-.093.01-.008.003-.011.018-.43-.003-.012-.01-.01z"/><path fill="#09244B" d="M1.515 2.515a1 1 0 0 1 1.32-.084l.094.084L4.414 4H16a2 2 0 0 1 1.995 1.85L18 6v2.21l2.094-1.291a1.25 1.25 0 0 1 1.9.944l.006.12v8.033a1.25 1.25 0 0 1-1.8 1.123l-.106-.058L18 15.79v1.794l1.485 1.486a1 1 0 0 1-1.32 1.497l-.094-.083L1.515 3.93a1 1 0 0 1 0-1.414M2 7.247l2 2V18h8.754l2 2H4a2 2 0 0 1-2-2zM16 6H6.414L16 15.586zm4 3.326-2 1.232v2.883l2 1.232z"/></g></svg>
